!!!OTL: 649. Vorbedentung.
!!!ARE: Europa, Mitteleuropa, Deutschland, Hessen, Odenwald
!!!SCT: E0649A
!!!TXL: @@DE
!!!YEM: Copyright 1995, estate of Helmut Schaffrath.
**kern	**text
*ICvox	*
*M3/4	*
*k[b-e-a-]	*
*E-:	*
!LO:TX:a:t=Mäßig bewegt.	!
!LO:TX:a:t=Oberlahnkreis 1880.	!
{4e-	.
=1	=1
8.e-	Schönſter
16g	.
4b-	Schatʒ,
8ee-L	mein
8ccJ	.
=2	=2
8b-L	En-
8gJ	.
8b-}	-gel,
{8b-	ich
8b-	lieb
8b-	dich
=3	=3
(8ccL	ganʒ
8b-J	.
4a-)	.
4g	al-
=4	=4
2f}	-lein
{4b-	ich
=5	=5
8.g	hoff,
16f	du
4e-	ſollſt
8fL	mein
8ccJ	.
=6	=6
4b-	wer-
8g}	-den,
{8g	mein
8g	ei-
8g	-gen
=7	=7
(<4.b-	ſollſt
8a-)	.
4f	du
=8	=8
2e-}	ſein!
==	==
!!!AGN: Liebes - Lied
!!!ONB: ESAC (Essen Associative Code) Database: ERK2
!!!AMT: simple triple
!!!AIN: vox
!!!EED: Helmut Schaffrath
!!!EEV: 1.0
!!!RDF**kern: < = below
!!!GTL: Liebeslieder [Neuere (aus dem 18. bis 19. Jahrh.) - Liebeslust]
!!!URL-scan: https://rosdok.uni-rostock.de/mcrviewer/recordIdentifier/rosdok_ppn745177662/iview2/phys_0460.iview2?x=48.368023684967966&y=360.5394793606829&scale=0.7029437510502773&rotation=0&layout=singlePageLayout
!!!ENC: Anna Maria Matuszewska
!!!EEV: 2024/12/12
*-	*-
